X:1
T:Es wollt uns Gott
T:Balthasar Resinarius
T:Source : DDT 34---Leipzig---Breitkopf & Härtel---J.Wolf---1908. First print : Newe Deutsche Geistliche Gesenge---Wittemberg---G.Rhau---1544. Editor : André Vierendeels (31/08/17)
T:Notes : Original clefs : C1, C3, C4, F4 Original note values have been halved Editorial accidentals above the staff 
T:Es wollt uns Gott
T:©
T:©
T:©
T:©
C:Balthasar Resinarius
Z:©
%%score [ 1 [ 2 3 ] 4 ]
L:1/8
Q:1/4=120
M:2/2
K:C
V:1 treble nm="Soprano" snm="S"
V:2 treble-8 nm="Tenor 1" snm="T 1"
V:3 treble-8 nm="Tenor 2" snm="T 2"
V:4 bass nm="Bass" snm="B"
V:1
 z8 | B4 c4 | B4 A4 | BABc d2 d2 | B4 BAGF | G2 c4 B2 | c4 z2 D2- | DEFG A2 B2 | c3 B G3 A | %9
w: |Es wollt|uns Gott|ge- * * * nä- dig|sein, es _ _ _|_ wollt uns|Gott ge-|* * * * nä- *||
w: |Sein Ant-|litz uns|mit _ _ _ hel- lem|Schein, sein _ _ _|Ant- litz _|uns mit|_ _ _ _ hel- *||
 B2 G3 F FE | G6 FE | D4 z4 | z4 d4 | c4 B4 | c4 A4 | G4 D4 | F8 | G8- | G8 | E8- :| E8 | z8 | G8 | %23
w: * * * dig _|sein, _ _|_|und|sei- nen|Se- gen|ge- *||||ben.|||Dasz|
w: * * * lem _|Schein, _ _|_|er-|leucht zum|ew'- gen|Le- *||||ben.-||||
 F4 E4 | D4 E4 | C4 D4 | E8- | E8 | B8 | c4 A4 | G4 A4 | c8 | B8 | e6 dc | B4 c4 | B6 AG | %36
w: wir er-|ken- nen|sei- ne|Werk,|_|und|was ihm|liebt auf|Er-|den,|und _ _|Je- sus|Chri- * *|
w: |||||||||||||
 A4 z2 F2- | FE E4 D2 | E4 G4 | A4 G4 | c4 d4 | c3 B A4- | A2 GF G3 F/G/ | A4 c4 | B4 A4 | G4 D4 | %46
w: stus, Heil|_ _ und _|Stärk, be-|kannt den|Hei- den|wer- * *||den, und|sie zu|Gott be-|
w: ||||||||||
 EFGE F2 A2- | AGFE F4 | E4 D2 E2- | E2 DC D4 | C2 E3 DEF | G2 A3 GGF | A8 |] %53
w: keh- * * * * *||||||ren.|
w: |||||||
V:2
 B4 c4 | B4 A4 | BABc d2 d2 | G4 A4 | z8 | e4 e2 e2 | c4 B2 d2- | d2 cB A2 G2- | G2 G2 c3 B | %9
w: Es wollt|uns Gott|ge- * * * nä- dig|sein, _||Es wollt uns|Gott ge- nä-|||
w: Sein Ant-|litz uns|mit _ _ _ hel- lem|Schein, _||sein Ant- litz|uns mit hel|_ _ _ lem Schein,|_ [mit hel- *|
 G2 B2 A4 | G3 A B4- | B2 AG A2 B2 | G8 | g4 g2 g2 | e6 f2 | d2 e2 BABc | d8 | z2 B3 c d2 | %18
w: ||* * * * dig|sein,|und sei- nen|Se- *||gen|ge- * *|
w: ||* * * * lem|Schein]|er- leucht zum|ew'- *||gen|Le- * *|
 B2 G2 z2 E2- | EF G2 C4 :| c6 c2 | BG c4 B2 | c4 z2 G2 | A2 B2 c2 G2 | G8 | z2 A2 A3 B | %26
w: * ben, ge-|* * * ben.|Dasz wir|_ _ _ _|* er-|ken- * * *|nen|sei- ne _|
w: * ben, Le-|* * * ben,|||||||
 c3 B G4- | G4 z4 | g8 | e2 a4 gf | e4 z2 e2 | ef g4 f2 | g8 | g8 | g4 g4 | g3 f d3 e | %36
w: _ _ Werk,|_|und|was ihm _ _|liebt auf|Er- * * *|den,|und|Je- sus|Chri- * * *|
w: ||||||||||
 f3 e c2 d2 | B2 c2 A3 B | c2 g3 f e2- | e2 d2 e4- | e2 c4 B2 | c2 e2 f4 | e8 | e2 c3 def | %44
w: * * * stus|Heil und Stärk _|_ be- * kannt|_ den Hei-|||den|wer- * * * *|
w: ||||||||
 g4 e4- | e4 z4 | c4 A2 A2- | AB c4 B2 | c4 B2 c2- | c4 B4 | c8 | B2 A2 B4 | A8 |] %53
w: * den,|_|und _ sie-|* * * zu|Gott be- keh-||||ren.|
w: |||||||||
V:3
 z8 | z8 | z8 | z8 | B8 | c4 B4 | A4 B4 | d8 | e8 | d8 | B8 | d8 | c4 B4 | cdec d4 | c6 BA | %15
w: ||||Es|wollt uns|Gott ge-|nä-|dig|sein||und|sei- nen|Se- * * * *||
w: ||||Sein|Ant- litz|uns mit|hel-|lem|Schein,|er-|leucht|zum e-|||
 B2 c2 B2 G2 | A8 | G8 | z2 G3 A B2 | G2 E3 F G2 :| C4 G4- | G4 F4 | G2 G3 ABc | d4 G2 c2- | %24
w: ||gen|ge- * *|* * * ben,|ben, Dasz|_ wir|er- ken- * * *||
w: |wi-|gen|Le- * *|* * * (ben)|||||
 c2 B2 c3 B | AGFE F4 | E8 | G3 A B2 c2 | d8 | c2 A3 Bcd | e4 f2 e2- | edcB c4 | d8 | z8 | e8 | %35
w: * nen sei- *|* * * * ne|Werk,|und _ _ _|was|ihm liebt _ _ _|_ auf Er-||den,||und|
w: |||||||||||
 d4 B4 | d4 A4 | G4 F4 | E8 | z4 G4 | A4 G4 | c4 d4 | B8 | A8 | z4 c4 | B4 A4 | G4 D4 | F8 | G8- | %49
w: Je- sus|Chri- stus|Heil und|Stärk|be-|kannt den|Hei- den|wer-|den,|und|sie zu|Gott be-|keh-||
w: ||||||||||||||
 G8 | E8- | E8- | E8 |] %53
w: |ren.|_||
w: ||||
V:4
 z8 | z8 | E,4 F,4 | E,4 D,4 | E,D,E,F, G,2 G,2 | C,3 D, E,4 | A,,2 A,2 G,3 F, | D,C,D,E, F,2 G,2 | %8
w: ||Es wollt|uns Gott|ge- * * * nä- dig|sein, _ _|ge- nä- * *|* * * * * dig|
w: ||Sein Ant-|litz uns|mit _ _ _ hel- lem|Schein _ _|sein Ant- litz uns|mit _ _ _ hel- lem|
 C,4 C,D,E,F, | G,4 D,4 | E,D,E,F, G,4- | G,2 F,E, D,2 G,2 | C,4 z4 | z2 C,2 G,4 | A,6 G,F, | %15
w: sein, es _ _ _|wollt uns|Gott _ _ _ _|_ ge- * nä- dig|sein,|und sei-|* nen _|
w: Schein, sein _ _ _|Ant- litz|uns _ _ _ _|_ mit _ hel- lem|Schein|er- leucht|zum _ _|
 G,2 C,2 G,3 F, | D,8 | z2 G,3 A, B,2 | G,2 E,3 F, G,2 | C,8 :| z2 C,3 B,,C,D, | E,2 C,2 D,4 | %22
w: Se- * * *|gen|ge- * *||ben.|Dasz _ _ _|wir er- ken-|
w: e- * * wi-|gen|Le- * *||ben,|||
 C,3 D, E,4 | D,4 C,3 B,, | G,,4 C,4 | A,,4 D,3 C, | A,,2 C,3 B,,C,D, | E,3 F, G,2 C,2 | G,8 | %29
w: |* nen _|sei- ne|Werk und _|_ _ _ _ _||was|
w: |||||||
 C,2 F,3 G,A,B, | C4 A,2 C2- | CB,A,G, A,4 | G,8 | C,6 D,2 | E,4 C,4 | G,6 F,E, | D,3 E, F,2 D,2 | %37
w: ihm liebt _ _ _|_ auf Er-||den,|und _|Je- sus|Chri- * *|* stus Heil und|
w: ||||||||
 E,2 C,2 D,4 | A,,2 C,3 D, E,2 | F,4 E,4 | A,,4 z4 | A,4 D,4 | E,8 | A,,2 A,4 A,2 | G,4 A,4 | %45
w: Stärk, be kannt|den Hei- * *|den wer-|den,|und sie|_|zu Gott be-|keh- *|
w: ||||||||
 E,4 F,3 E, | C,4 D,2 F,2- |"^#" F,E,D,C, D,4 | C,D,E,F, G,2 C,2- | C,2 B,,A,, G,,4 | %50
w: |||||
w: |||||
 A,,2 C,3 B,,C,D, | E,2 A,,2 E,4 | A,,8 |] %53
w: ||ren.|
w: |||

